X:229
T: ICH KANN NICHT SITZN
N: E0816
O: Europa, Mitteleuropa, Deutschland, Brandenburg, Oderbruch; Coethen
R: Kilt - Lied
M: 3/4
L: 1/8
K: F
C | FAc3A | GAB3
c | AGFAcA | AGG2z
F | FFd2gd | dcc3
A | GABdcE | GFF2z

